packages/ffe-icons/icons/open/300/sm/fax.svg

<svg xmlns="http://www.w3.org/2000/svg" height="20" viewBox="0 -960 960 960" width="20"><path d="M216-202.001q-45.833 0-77.916-32.083T106.001-312v-264q0-45.833 32.083-77.916T216-685.999q26.846 0 51.384 12.5 24.539 12.5 40.385 35.5h38.232v-96.77q0-26.526 18.89-45.416 18.89-18.891 45.417-18.891h216.044q27.167 0 45.907 18.891 18.74 18.89 18.74 45.416v96.77H768q35.833 0 60.916 25.083T853.999-552v237.692q0 26.527-18.89 45.417t-45.417 18.89H307.769q-16.846 23-40.885 35.5-24.038 12.5-50.884 12.5Zm0-51.998q24.246 0 41.124-16.877 16.877-16.878 16.877-41.124v-264q0-24.246-16.877-41.124-16.878-16.877-41.124-16.877-24.246 0-41.124 16.877-16.877 16.878-16.877 41.124v264q0 24.246 16.877 41.124 16.878 16.877 41.124 16.877Zm181.999-384h241.002v-96.77q0-5.385-3.462-8.846-3.462-3.462-8.847-3.462H410.308q-5.385 0-8.847 3.462-3.462 3.461-3.462 8.846v96.77Zm-72 336h463.693q5.385 0 8.847-3.462 3.462-3.462 3.462-8.847V-552q0-14.046-9.977-24.024-9.978-9.977-24.024-9.977H325.999v284.002ZM599.789-456Q615-456 625.5-466.289q10.5-10.29 10.5-25.5Q636-507 625.711-517.5q-10.29-10.5-25.5-10.5Q585-528 574.5-517.711q-10.5 10.29-10.5 25.5Q564-477 574.289-466.5q10.29 10.5 25.5 10.5Zm108 0Q723-456 733.5-466.289q10.5-10.29 10.5-25.5Q744-507 733.711-517.5q-10.29-10.5-25.5-10.5Q693-528 682.5-517.711q-10.5 10.29-10.5 25.5Q672-477 682.289-466.5q10.29 10.5 25.5 10.5Zm-108 96Q615-360 625.5-370.289q10.5-10.29 10.5-25.5Q636-411 625.711-421.5q-10.29-10.5-25.5-10.5Q585-432 574.5-421.711q-10.5 10.29-10.5 25.5Q564-381 574.289-370.5q10.29 10.5 25.5 10.5Zm108 0Q723-360 733.5-370.289q10.5-10.29 10.5-25.5Q744-411 733.711-421.5q-10.29-10.5-25.5-10.5Q693-432 682.5-421.711q-10.5 10.29-10.5 25.5Q672-381 682.289-370.5q10.29 10.5 25.5 10.5Zm-291.723 0h79.518q13.628 0 23.022-9.244 9.394-9.244 9.394-22.91v-103.692q0-13.666-9.219-22.91T495.934-528h-79.518q-13.628 0-23.022 9.244-9.394 9.244-9.394 22.91v103.692q0 13.666 9.219 22.91T416.066-360Zm-90.067 58.001v-284.002 284.002Z"/></svg>

<svg xmlns="http://www.w3.org/2000/svg" height="20" viewBox="0 -960 960 960" width="20"><path d="M216-202q-45.83 0-77.92-32.08Q106-266.17 106-312v-264q0-45.83 32.08-77.92Q170.17-686 216-686q26.85 0 51.38 12.5 24.54 12.5 40.39 35.5H346v-96.77q0-26.53 18.89-45.42t45.42-18.89h216.04q27.17 0 45.91 18.89Q691-761.3 691-734.77V-638h77q35.83 0 60.92 25.08Q854-587.83 854-552v237.69q0 26.53-18.89 45.42T789.69-250H307.77q-16.85 23-40.89 35.5Q242.85-202 216-202Zm0-52q24.25 0 41.12-16.88Q274-287.75 274-312v-264q0-24.25-16.88-41.12Q240.25-634 216-634q-24.25 0-41.12 16.88Q158-600.25 158-576v264q0 24.25 16.88 41.12Q191.75-254 216-254Zm182-384h241v-96.77q0-5.38-3.46-8.85-3.46-3.46-8.85-3.46H410.31q-5.39 0-8.85 3.46-3.46 3.47-3.46 8.85V-638Zm-72 336h463.69q5.39 0 8.85-3.46t3.46-8.85V-552q0-14.05-9.98-24.02Q782.05-586 768-586H326v284Zm273.79-154q15.21 0 25.71-10.29t10.5-25.5q0-15.21-10.29-25.71t-25.5-10.5q-15.21 0-25.71 10.29t-10.5 25.5q0 15.21 10.29 25.71t25.5 10.5Zm108 0q15.21 0 25.71-10.29t10.5-25.5q0-15.21-10.29-25.71t-25.5-10.5q-15.21 0-25.71 10.29t-10.5 25.5q0 15.21 10.29 25.71t25.5 10.5Zm-108 96q15.21 0 25.71-10.29t10.5-25.5q0-15.21-10.29-25.71t-25.5-10.5q-15.21 0-25.71 10.29t-10.5 25.5q0 15.21 10.29 25.71t25.5 10.5Zm108 0q15.21 0 25.71-10.29t10.5-25.5q0-15.21-10.29-25.71t-25.5-10.5q-15.21 0-25.71 10.29t-10.5 25.5q0 15.21 10.29 25.71t25.5 10.5Zm-291.72 0h79.51q13.63 0 23.03-9.24 9.39-9.25 9.39-22.91v-103.7q0-13.66-9.22-22.91-9.22-9.24-22.85-9.24h-79.51q-13.63 0-23.03 9.24-9.39 9.25-9.39 22.91v103.7q0 13.66 9.22 22.91 9.22 9.24 22.85 9.24ZM326-302v-284 284Z"/></svg>
